X: 145126
T: SALAMANCA
R: Hornpipe.
%R: hornpipe, reel
B: James Kerr "Merry Melodies" v.1 p.45 s.1 #26
Z: 2016 John Chambers <jc:trillian.mit.edu>
M: C
L: 1/8
K: D
d>B |\
AD (3(FED) AD (3(FED) | Adcd fedc |\
BE (3(GFE) BE (3(GFE) | (Be)ed (ce)eg |\
fB (3(dcB) bB (3(dcB) | fedc Bbag |\
fgec dABG | FGEF D2 :|
|: (fg) |\
afdf bgeg | fgec dcBA |\
Bdce dfeg | fa^gb a2 (3(ABc) |\
defg afbg | fedc dbag |\
fedc dABG | FGEF D2 :|

%%sep 1 1 500
%%sep 1 1 500

